Newaita-dark/.places-default/16/folder-open.svg

<?xml version="1.0" encoding="UTF-8"?>
<svg xmlns="http://www.w3.org/2000/svg" xmlns:xlink="http://www.w3.org/1999/xlink" width="16pt" height="16pt" viewBox="0 0 16 16" version="1.1">
<defs>
<linearGradient id="linear0" gradientUnits="userSpaceOnUse" x1="254" y1="233.5" x2="254" y2="254.666672" gradientTransform="matrix(0.031253,0,0,0.031253,-0.00000190753,7.050154)">
<stop offset="0" style="stop-color:rgb(0%,0%,0%);stop-opacity:0.27451;"/>
<stop offset="1" style="stop-color:rgb(0%,0%,0%);stop-opacity:0;"/>
</linearGradient>
<radialGradient id="radial0" gradientUnits="userSpaceOnUse" cx="450.908936" cy="189.579361" fx="450.908936" fy="189.579361" r="21.166656" gradientTransform="matrix(0.0000000870852,-0.0390662,-0.0703192,-0.0000000507693,27.057606,32.128427)">
<stop offset="0" style="stop-color:rgb(0%,0%,0%);stop-opacity:0.313725;"/>
<stop offset="0.222222" style="stop-color:rgb(0%,0%,0%);stop-opacity:0.27451;"/>
<stop offset="1" style="stop-color:rgb(0%,0%,0%);stop-opacity:0;"/>
</radialGradient>
<radialGradient id="radial1" gradientUnits="userSpaceOnUse" cx="450.908936" cy="189.579361" fx="450.908936" fy="189.579361" r="21.166656" gradientTransform="matrix(-0.0000000870852,0.0390662,0.0703192,0.0000000507693,-11.181089,-3.432978)">
<stop offset="0" style="stop-color:rgb(0%,0%,0%);stop-opacity:0.313725;"/>
<stop offset="0.222222" style="stop-color:rgb(0%,0%,0%);stop-opacity:0.27451;"/>
<stop offset="1" style="stop-color:rgb(0%,0%,0%);stop-opacity:0;"/>
</radialGradient>
<radialGradient id="radial2" gradientUnits="userSpaceOnUse" cx="450.908936" cy="189.579361" fx="450.908936" fy="189.579361" r="21.166656" gradientTransform="matrix(-0.0000000870852,-0.0390662,0.0703192,-0.0000000507693,-11.181089,32.128427)">
<stop offset="0" style="stop-color:rgb(0%,0%,0%);stop-opacity:0.313725;"/>
<stop offset="0.222222" style="stop-color:rgb(0%,0%,0%);stop-opacity:0.27451;"/>
<stop offset="1" style="stop-color:rgb(0%,0%,0%);stop-opacity:0;"/>
</radialGradient>
<radialGradient id="radial3" gradientUnits="userSpaceOnUse" cx="450.908936" cy="189.579361" fx="450.908936" fy="189.579361" r="21.166656" gradientTransform="matrix(0.0000000870852,0.0390662,-0.0703192,0.0000000507693,27.057605,-3.432979)">
<stop offset="0" style="stop-color:rgb(0%,0%,0%);stop-opacity:0.313725;"/>
<stop offset="0.222222" style="stop-color:rgb(0%,0%,0%);stop-opacity:0.27451;"/>
<stop offset="1" style="stop-color:rgb(0%,0%,0%);stop-opacity:0;"/>
</radialGradient>
<linearGradient id="linear1" gradientUnits="userSpaceOnUse" x1="317.5" y1="233.499985" x2="317.5" y2="-147.500015" gradientTransform="matrix(0.031253,0,0,0.031253,-0.0000000941252,7.050153)">
<stop offset="0" style="stop-color:rgb(55.294118%,43.137255%,38.823529%);stop-opacity:1;"/>
<stop offset="1" style="stop-color:rgb(63.137255%,53.333333%,49.803922%);stop-opacity:1;"/>
</linearGradient>
<linearGradient id="linear2" gradientUnits="userSpaceOnUse" x1="254" y1="233.5" x2="254" y2="-84" gradientTransform="matrix(1,0,0,1,0.00000308626,10.583336)">
<stop offset="0" style="stop-color:rgb(87.843137%,87.843137%,87.843137%);stop-opacity:1;"/>
<stop offset="1" style="stop-color:rgb(93.333333%,93.333333%,93.333333%);stop-opacity:1;"/>
</linearGradient>
<linearGradient id="linear3" gradientUnits="userSpaceOnUse" x1="254" y1="-115.750008" x2="254" y2="233.5" gradientTransform="matrix(0.031253,0,0,0.031253,-0.0000000941252,7.050153)">
<stop offset="0" style="stop-color:rgb(84.313725%,80%,78.431373%);stop-opacity:1;"/>
<stop offset="1" style="stop-color:rgb(73.72549%,66.666667%,64.313725%);stop-opacity:1;"/>
</linearGradient>
</defs>
<g id="surface1">
<path style=" stroke:none;fill-rule:nonzero;fill:url(#linear0);" d="M 1.984375 14.347656 L 13.890625 14.347656 L 13.890625 15.007812 L 1.984375 15.007812 Z M 1.984375 14.347656 "/>
<path style=" stroke:none;fill-rule:nonzero;fill:url(#radial0);" d="M 13.890625 14.347656 L 15.214844 14.347656 L 15.214844 13.6875 L 13.890625 13.6875 Z M 13.890625 14.347656 "/>
<path style=" stroke:none;fill-rule:nonzero;fill:url(#radial1);" d="M 1.984375 14.347656 L 0.660156 14.347656 L 0.660156 15.007812 L 1.984375 15.007812 Z M 1.984375 14.347656 "/>
<path style=" stroke:none;fill-rule:nonzero;fill:url(#radial2);" d="M 1.984375 14.347656 L 0.660156 14.347656 L 0.660156 13.6875 L 1.984375 13.6875 Z M 1.984375 14.347656 "/>
<path style=" stroke:none;fill-rule:nonzero;fill:url(#radial3);" d="M 13.890625 14.347656 L 15.214844 14.347656 L 15.214844 15.007812 L 13.890625 15.007812 Z M 13.890625 14.347656 "/>
<path style=" stroke:none;fill-rule:nonzero;fill:url(#linear1);" d="M 3.636719 2.441406 C 3.273438 2.441406 2.976562 2.734375 2.976562 3.101562 L 2.976562 3.761719 L 1.324219 3.761719 C 0.957031 3.761719 0.660156 4.058594 0.660156 4.425781 L 0.660156 9.71875 C 0.660156 10.082031 0.957031 10.378906 1.324219 10.378906 L 14.554688 10.378906 C 14.921875 10.378906 15.214844 10.082031 15.214844 9.71875 L 15.214844 4.425781 C 15.214844 4.257812 15.152344 4.101562 15.050781 3.988281 L 15.050781 3.101562 C 15.050781 2.734375 14.753906 2.441406 14.386719 2.441406 Z M 3.636719 2.441406 "/>
<path style="fill-rule:nonzero;fill:url(#linear2);stroke-width:3;stroke-linecap:round;stroke-linejoin:miter;stroke:rgb(12.941177%,12.941177%,12.941177%);stroke-opacity:1;stroke-miterlimit:4;" d="M 52.869951 -73.388523 L 455.081542 -73.388523 C 460.955981 -73.388523 465.705527 -68.638977 465.705527 -62.889526 L 465.705527 106.469301 C 465.705527 112.34374 460.955981 117.093287 455.081542 117.093287 L 52.869951 117.093287 C 47.1205 117.093287 42.370954 112.34374 42.370954 106.469301 L 42.370954 -62.889526 C 42.370954 -68.638977 47.1205 -73.388523 52.869951 -73.388523 Z M 52.869951 -73.388523 " transform="matrix(0.031253,0,0,0.031253,0,6.719392)"/>
<path style=" stroke:none;fill-rule:nonzero;fill:rgb(90.196079%,90.196079%,90.196079%);fill-opacity:0.588235;" d="M 3.636719 2.441406 C 3.273438 2.441406 2.976562 2.734375 2.976562 3.101562 L 2.976562 3.183594 C 2.976562 2.816406 3.273438 2.523438 3.636719 2.523438 L 14.386719 2.523438 C 14.753906 2.523438 15.050781 2.816406 15.050781 3.183594 L 15.050781 3.101562 C 15.050781 2.734375 14.753906 2.441406 14.386719 2.441406 Z M 3.636719 2.441406 "/>
<path style=" stroke:none;fill-rule:nonzero;fill:rgb(12.941177%,12.941177%,12.941177%);fill-opacity:1;" d="M 3.636719 2.394531 C 3.246094 2.394531 2.929688 2.710938 2.929688 3.101562 L 2.929688 3.714844 L 1.324219 3.714844 C 0.929688 3.714844 0.613281 4.035156 0.613281 4.425781 L 0.613281 9.71875 C 0.613281 10.109375 0.929688 10.425781 1.324219 10.425781 L 14.554688 10.425781 C 14.945312 10.425781 15.261719 10.109375 15.261719 9.71875 L 15.261719 4.425781 C 15.261719 4.25 15.199219 4.09375 15.097656 3.96875 L 15.097656 3.101562 C 15.097656 2.710938 14.78125 2.394531 14.386719 2.394531 Z M 3.636719 2.488281 L 14.386719 2.488281 C 14.730469 2.488281 15.003906 2.761719 15.003906 3.101562 L 15.003906 4.003906 L 15.015625 4.019531 C 15.109375 4.125 15.167969 4.269531 15.167969 4.425781 L 15.167969 9.71875 C 15.167969 10.058594 14.894531 10.332031 14.554688 10.332031 L 1.324219 10.332031 C 0.980469 10.332031 0.707031 10.058594 0.707031 9.71875 L 0.707031 4.425781 C 0.707031 4.082031 0.980469 3.808594 1.324219 3.808594 L 3.023438 3.808594 L 3.023438 3.101562 C 3.023438 2.761719 3.296875 2.488281 3.636719 2.488281 Z M 3.636719 2.488281 "/>
<path style=" stroke:none;fill-rule:nonzero;fill:url(#linear3);" d="M 1.324219 6.738281 C 0.957031 6.738281 0.660156 7.035156 0.660156 7.402344 L 0.660156 13.6875 C 0.660156 14.050781 0.957031 14.347656 1.324219 14.347656 L 14.554688 14.347656 C 14.921875 14.347656 15.214844 14.050781 15.214844 13.6875 L 15.214844 7.402344 L 6.285156 7.402344 C 5.917969 7.402344 5.621094 7.105469 5.621094 6.738281 Z M 1.324219 6.738281 "/>
<path style=" stroke:none;fill-rule:nonzero;fill:rgb(0%,0%,0%);fill-opacity:0.196078;" d="M 1.324219 14.347656 C 0.957031 14.347656 0.660156 14.050781 0.660156 13.6875 L 0.660156 13.601562 C 0.660156 13.96875 0.957031 14.265625 1.324219 14.265625 L 14.554688 14.265625 C 14.921875 14.265625 15.214844 13.96875 15.214844 13.601562 L 15.214844 13.6875 C 15.214844 14.050781 14.921875 14.347656 14.554688 14.347656 Z M 1.324219 14.347656 "/>
<path style=" stroke:none;fill-rule:nonzero;fill:rgb(90.196079%,90.196079%,90.196079%);fill-opacity:0.937255;" d="M 1.324219 6.738281 C 0.957031 6.738281 0.660156 7.035156 0.660156 7.402344 L 0.660156 7.484375 C 0.660156 7.117188 0.957031 6.824219 1.324219 6.824219 L 5.621094 6.824219 L 5.621094 6.738281 Z M 1.324219 6.738281 "/>
<path style=" stroke:none;fill-rule:nonzero;fill:rgb(90.196079%,90.196079%,90.196079%);fill-opacity:0.937255;" d="M 6.285156 7.484375 C 5.917969 7.484375 5.621094 7.1875 5.621094 6.824219 L 5.621094 6.738281 C 5.621094 7.105469 5.917969 7.402344 6.285156 7.402344 L 15.257812 7.402344 L 15.257812 7.484375 Z M 6.285156 7.484375 "/>
<path style=" stroke:none;fill-rule:nonzero;fill:rgb(12.941177%,12.941177%,12.941177%);fill-opacity:1;" d="M 1.324219 6.691406 C 0.929688 6.691406 0.613281 7.011719 0.613281 7.402344 L 0.613281 13.6875 C 0.613281 14.078125 0.929688 14.394531 1.324219 14.394531 L 14.554688 14.394531 C 14.945312 14.394531 15.261719 14.078125 15.261719 13.6875 L 15.261719 7.355469 L 6.285156 7.355469 C 5.941406 7.355469 5.667969 7.082031 5.667969 6.738281 L 5.667969 6.691406 Z M 1.324219 6.785156 L 5.578125 6.785156 C 5.601562 7.15625 5.910156 7.449219 6.285156 7.449219 L 15.167969 7.449219 L 15.167969 13.6875 C 15.167969 14.027344 14.894531 14.300781 14.554688 14.300781 L 1.324219 14.300781 C 0.980469 14.300781 0.707031 14.027344 0.707031 13.6875 L 0.707031 7.402344 C 0.707031 7.058594 0.980469 6.785156 1.324219 6.785156 Z M 1.324219 6.785156 "/>
</g>
</svg>

<svg xmlns="http://www.w3.org/2000/svg" width="16pt" height="16pt" viewBox="0 0 16 16"><defs><linearGradient id="a" gradientUnits="userSpaceOnUse" x1="254" y1="233.5" x2="254" y2="254.667" gradientTransform="matrix(.03125 0 0 .03125 0 7.05)"><stop offset="0" stop-opacity=".275"/><stop offset="1" stop-opacity="0"/></linearGradient><radialGradient id="b" gradientUnits="userSpaceOnUse" cx="450.909" cy="189.579" fx="450.909" fy="189.579" r="21.167" gradientTransform="matrix(0 -.03907 -.07032 0 27.058 32.128)"><stop offset="0" stop-opacity=".314"/><stop offset=".222" stop-opacity=".275"/><stop offset="1" stop-opacity="0"/></radialGradient><radialGradient id="c" gradientUnits="userSpaceOnUse" cx="450.909" cy="189.579" fx="450.909" fy="189.579" r="21.167" gradientTransform="matrix(0 .03907 .07032 0 -11.181 -3.433)"><stop offset="0" stop-opacity=".314"/><stop offset=".222" stop-opacity=".275"/><stop offset="1" stop-opacity="0"/></radialGradient><radialGradient id="d" gradientUnits="userSpaceOnUse" cx="450.909" cy="189.579" fx="450.909" fy="189.579" r="21.167" gradientTransform="matrix(0 -.03907 .07032 0 -11.181 32.128)"><stop offset="0" stop-opacity=".314"/><stop offset=".222" stop-opacity=".275"/><stop offset="1" stop-opacity="0"/></radialGradient><radialGradient id="e" gradientUnits="userSpaceOnUse" cx="450.909" cy="189.579" fx="450.909" fy="189.579" r="21.167" gradientTransform="matrix(0 .03907 -.07032 0 27.058 -3.433)"><stop offset="0" stop-opacity=".314"/><stop offset=".222" stop-opacity=".275"/><stop offset="1" stop-opacity="0"/></radialGradient><linearGradient id="f" gradientUnits="userSpaceOnUse" x1="317.5" y1="233.5" x2="317.5" y2="-147.5" gradientTransform="matrix(.03125 0 0 .03125 0 7.05)"><stop offset="0" stop-color="#8d6e63"/><stop offset="1" stop-color="#a1887f"/></linearGradient><linearGradient id="g" gradientUnits="userSpaceOnUse" x1="254" y1="233.5" x2="254" y2="-84" gradientTransform="translate(0 10.583)"><stop offset="0" stop-color="#e0e0e0"/><stop offset="1" stop-color="#eee"/></linearGradient><linearGradient id="h" gradientUnits="userSpaceOnUse" x1="254" y1="-115.75" x2="254" y2="233.5" gradientTransform="matrix(.03125 0 0 .03125 0 7.05)"><stop offset="0" stop-color="#d7ccc8"/><stop offset="1" stop-color="#bcaaa4"/></linearGradient></defs><path d="M1.984 14.348h11.907v.66H1.984zm0 0" fill="url(#a)"/><path d="M13.89 14.348h1.325v-.66H13.89zm0 0" fill="url(#b)"/><path d="M1.984 14.348H.66v.66h1.324zm0 0" fill="url(#c)"/><path d="M1.984 14.348H.66v-.66h1.324zm0 0" fill="url(#d)"/><path d="M13.89 14.348h1.325v.66H13.89zm0 0" fill="url(#e)"/><path d="M3.637 2.441a.66.66 0 0 0-.66.66v.66H1.324a.664.664 0 0 0-.664.665v5.293c0 .363.297.66.664.66h13.23a.66.66 0 0 0 .66-.66V4.426a.658.658 0 0 0-.163-.438v-.886a.66.66 0 0 0-.664-.66zm0 0" fill="url(#f)"/><path d="M52.87-73.389h402.212c5.874 0 10.624 4.75 10.624 10.5v169.358c0 5.875-4.75 10.624-10.624 10.624H52.87c-5.75 0-10.499-4.75-10.499-10.624V-62.89c0-5.749 4.75-10.499 10.499-10.499zm0 0" transform="matrix(.03125 0 0 .03125 0 6.72)" fill="url(#g)" stroke-width="3" stroke-linecap="round" stroke="#212121"/><path d="M3.637 2.441a.66.66 0 0 0-.66.66v.083a.66.66 0 0 1 .66-.66h10.75a.66.66 0 0 1 .664.66v-.082a.66.66 0 0 0-.664-.66zm0 0" fill="#e6e6e6" fill-opacity=".588"/><path d="M3.637 2.395a.707.707 0 0 0-.707.707v.613H1.324c-.394 0-.71.32-.71.71V9.72c0 .39.316.707.71.707h13.23c.391 0 .708-.317.708-.707V4.426a.718.718 0 0 0-.164-.457v-.867a.708.708 0 0 0-.711-.707zm0 .093h10.75c.343 0 .617.274.617.614v.902l.012.016c.093.105.152.25.152.406v5.293c0 .34-.273.613-.613.613H1.325a.613.613 0 0 1-.618-.613V4.426c0-.344.273-.617.617-.617h1.7v-.707c0-.34.273-.614.613-.614zm0 0" fill="#212121"/><path d="M1.324 6.738a.664.664 0 0 0-.664.664v6.285c0 .364.297.66.664.66h13.23a.66.66 0 0 0 .66-.66V7.402H6.286a.664.664 0 0 1-.664-.664zm0 0" fill="url(#h)"/><path d="M1.324 14.348a.663.663 0 0 1-.664-.66v-.086c0 .367.297.664.664.664h13.23a.66.66 0 0 0 .66-.664v.085a.66.66 0 0 1-.66.66zm0 0" fill-opacity=".196"/><path d="M1.324 6.738a.664.664 0 0 0-.664.664v.082a.66.66 0 0 1 .664-.66h4.297v-.086zm0 0M6.285 7.484a.663.663 0 0 1-.664-.66v-.086c0 .367.297.664.664.664h8.973v.082zm0 0" fill="#e6e6e6" fill-opacity=".937"/><path d="M1.324 6.691c-.394 0-.71.32-.71.711v6.285c0 .391.316.708.71.708h13.23c.391 0 .708-.317.708-.707V7.354H6.285a.614.614 0 0 1-.617-.617v-.047zm0 .094h4.254a.71.71 0 0 0 .707.664h8.883v6.239c0 .34-.273.613-.613.613H1.325a.613.613 0 0 1-.618-.614V7.402c0-.343.273-.617.617-.617zm0 0" fill="#212121"/></svg>
